svgs/sharp-regular/bold.svg

<svg xmlns="http://www.w3.org/2000/svg" viewBox="0 0 384 512"><!--! Font Awesome Pro 6.6.0 by @fontawesome - https://fontawesome.com License - https://fontawesome.com/license (Commercial License) Copyright 2024 Fonticons, Inc. --><path d="M0 32l24 0 24 0 24 0 16 0 24 0 100 0c68.5 0 124 55.5 124 124c0 34.7-14.3 66.2-37.3 88.7C339.7 264.9 368 307.1 368 356c0 68.5-55.5 124-124 124l-132 0-24 0-16 0-24 0-24 0L0 480l0-48 24 0 24 0 0-176L48 80 24 80 0 80 0 32zM96 432l16 0 132 0c42 0 76-34 76-76s-34-76-76-76l-32 0L96 280l0 152zm0-200l116 0c42 0 76-34 76-76s-34-76-76-76L112 80 96 80l0 152z"/></svg>

<svg xmlns="http://www.w3.org/2000/svg" viewBox="0 0 384 512"><!--! Font Awesome Pro 6.4.2 by @fontawesome - https://fontawesome.com License - https://fontawesome.com/license (Commercial License) Copyright 2023 Fonticons, Inc. --><path d="M0 32H24 48 72 88h24H212c68.5 0 124 55.5 124 124c0 34.7-14.3 66.2-37.3 88.7C339.7 264.9 368 307.1 368 356c0 68.5-55.5 124-124 124H112 88 72 48 24 0V432H24 48V256 80H24 0V32zM96 432h16H244c42 0 76-34 76-76s-34-76-76-76H212 96V432zm0-200H212c42 0 76-34 76-76s-34-76-76-76H112 96V232z"/></svg>
